assets/logo.svg

<svg width="80" height="30" viewBox="0 0 80 30" fill="none" xmlns="http://www.w3.org/2000/svg">
<g clip-path="url(#clip0_16_332)">
<path d="M57.1947 8.43099C57.8646 7.74435 59.9994 5.56791 61.9428 3.5913L65.4799 0L68.859 0.0124901C70.7234 0.0208696 72.2547 0.0374704 72.2713 0.0540711C72.2838 0.0706719 72.2255 0.174704 72.1382 0.283004C72.0508 0.395257 70.0908 2.38451 67.777 4.70656C65.4674 7.03273 63.3951 9.11352 62.7833 9.73771L62.9706 9.95826C63.0706 10.0789 63.4283 10.4868 63.7613 10.8655C64.0941 11.2441 65.2178 12.5176 66.2581 13.6952C67.2984 14.8729 68.8506 16.633 69.7121 17.6068C70.5694 18.5807 71.4348 19.5627 71.6304 19.7916C71.811 20.0042 71.9886 20.2192 72.1632 20.4367C72.2921 20.6073 72.3254 20.6738 72.2838 20.6945C72.2547 20.7113 71.5638 20.7279 70.7525 20.7238C69.9409 20.7238 68.4595 20.707 65.6547 20.653L65.5298 20.5115C65.4592 20.4324 64.0941 18.901 62.4921 17.1034C61.0651 15.501 59.6363 13.9002 58.2057 12.301C57.4484 11.452 56.637 10.5409 56.404 10.2704C56.171 10.004 55.9795 9.75842 55.9795 9.72933C55.9795 9.70435 56.5246 9.11747 57.1947 8.43099Z" fill="#118260"/>
<path d="M0.283004 1.31494C0.158103 0.790672 0.0458498 0.278893 0.0290909 0.178972L0 0L2.70909 0.0124901C4.43605 0.0208696 5.43067 0.041581 5.45976 0.0665613C5.48474 0.0915415 5.53043 0.220553 5.55968 0.357945C5.59289 0.495178 5.80933 1.51478 6.04237 2.62577C6.32475 3.97175 6.60913 5.31731 6.89549 6.66245C7.13265 7.77344 7.36569 8.8887 7.41565 9.13834C7.46561 9.38814 7.63194 10.187 7.7902 10.907C7.9483 11.6269 8.14387 12.5633 8.22704 12.9877C8.31036 13.4122 8.38941 13.7949 8.4019 13.8408C8.4185 13.9074 8.43099 13.9115 8.45597 13.8617C8.47257 13.8285 8.81391 12.4675 9.21755 10.8446C9.45992 9.85961 9.76063 8.64016 10.022 7.58055L10.4534 5.83004C10.6716 4.94435 10.9663 3.74245 11.1878 2.83889L11.3523 2.16806C11.5687 1.28585 11.7809 0.441107 11.9099 0.00411067L14.6315 0.0167589C16.1296 0.0208696 17.3655 0.0333597 17.378 0.0458498C17.3905 0.0581818 17.4612 0.274625 17.5277 0.524269C17.5986 0.778182 18.2643 3.51225 19.0093 6.6L19.6115 9.1004V9.10087L19.6125 9.10466C19.9236 10.3992 20.2358 11.6936 20.5489 12.9877C20.6489 13.4122 20.7404 13.7867 20.7529 13.8199C20.7654 13.8533 20.782 13.8742 20.7945 13.8617C20.8028 13.849 20.9151 13.3831 21.04 12.8213C21.1649 12.2594 21.3355 11.4647 21.4187 11.0526C21.4977 10.6406 21.735 9.52538 21.9388 8.57676C22.1425 7.62941 22.6198 5.3883 23.0022 3.59209L23.0043 3.58292C23.387 1.7853 23.7157 0.258024 23.7325 0.191462C23.7575 0.0956522 23.7991 0.0581818 23.9031 0.0333597C23.978 0.0166008 25.1058 0.00411067 26.4123 0.00411067C27.7149 0.00411067 28.8843 0.0208696 29.2213 0.0665613L29.1964 0.212174C29.1853 0.281897 29.0514 0.853439 28.8914 1.53549L28.8259 1.81439C28.7094 2.3034 28.5141 3.11478 28.3116 3.95668L28.3115 3.95779C28.1813 4.49802 28.0484 5.05091 27.9312 5.53881C27.6797 6.58564 27.4301 7.63291 27.1823 8.68063C26.7493 10.5126 26.3124 12.3437 25.8715 14.1738L25.7382 14.7304C25.1832 17.049 24.692 19.1009 24.6188 19.4171C24.5398 19.7625 24.4274 20.1953 24.2692 20.7279L18.2144 20.7238L16.9535 15.6593C16.547 14.0311 16.1092 12.2677 15.7609 10.8643L15.7594 10.858L15.7546 10.8384C15.5102 9.85407 15.3104 9.04964 15.1975 8.59747C14.927 7.49881 14.6814 6.54166 14.6564 6.4751C14.6356 6.4087 14.6065 6.35858 14.5983 6.37107C14.5856 6.38372 14.1113 8.2936 13.5371 10.6157C12.7821 13.6732 12.0317 16.7319 11.2857 19.7916C11.2191 20.0662 11.1358 20.3908 11.0359 20.7279H4.87731L4.83573 20.5323C4.81486 20.4199 4.56111 19.3505 4.27399 18.1478C4.00709 17.0317 3.7421 15.915 3.47905 14.7979C3.16362 13.4588 2.846 12.1202 2.52617 10.7821C2.15146 9.21328 1.78545 7.66941 1.71462 7.34909C1.64395 7.02862 1.48158 6.34609 1.35684 5.8302C1.25407 5.41945 1.08285 4.69518 0.931225 4.05375V4.05328L0.819921 3.58292L0.586403 2.59573L0.586245 2.59478C0.470198 2.10435 0.356522 1.6234 0.283162 1.31494H0.283004ZM31.6765 20.7279V0.00411067H37.4609V20.6656L36.5787 20.699C36.0919 20.7156 34.7892 20.7279 31.6765 20.7279ZM40.7485 4.24032C40.7485 6.56664 40.7651 11.2316 40.7817 14.6024L40.8107 20.732C45.2427 20.7154 46.541 20.6904 46.5619 20.6738C46.5826 20.653 46.5994 18.9344 46.6076 16.8536L46.616 13.071L54.3353 20.7279C59.175 20.7279 60.6773 20.7154 60.7979 20.6988C60.9187 20.6822 61.0185 20.6489 61.0185 20.6239C61.0185 20.603 60.8354 20.3867 60.6149 20.1453C60.3943 19.904 59.8367 19.3172 59.3749 18.8386C59.0117 18.4558 58.175 17.5888 57.3357 16.7191L56.6865 16.0463C55.6711 14.9935 53.9817 13.2416 52.9413 12.1554C51.8968 11.0692 50.9521 10.0789 50.8398 9.95826L50.6318 9.73771C50.9092 9.45866 51.3627 9.0019 51.9363 8.42419L51.947 8.41328C52.9208 7.43257 54.2384 6.10561 55.6296 4.70656C57.8476 2.47194 59.7742 0.520158 59.9116 0.366166C60.049 0.212174 60.1447 0.0706719 60.1281 0.0540711C60.1072 0.0374704 58.5674 0.0208696 56.7074 0.0166008L53.3157 0.00411067L46.7616 6.59162C46.7241 5.5347 46.7116 4.05328 46.7075 2.61755L46.6991 0.00411067H40.7485V4.24032ZM74.0729 18.6389C74.0561 17.4903 74.0395 12.8255 74.0395 8.277V0.00822134H79.8655V20.732H74.102L74.0729 18.6389ZM57.5494 29.2191V23.7154H60.5208C61.4392 23.7154 62.0613 23.8889 62.3874 24.2356C62.7134 24.5823 62.8764 25.2462 62.8764 26.2274C62.8764 27.4209 62.7306 28.2179 62.4391 28.6183C62.1507 29.0188 61.5725 29.2191 60.7042 29.2191H57.5494ZM58.2735 28.6949H60.3657C61.1336 28.6949 61.6288 28.5632 61.8514 28.2998C62.074 28.0364 62.1851 27.449 62.1851 26.5379C62.1851 25.5379 62.0881 24.9048 61.8938 24.6387C61.7024 24.3726 61.2417 24.2395 60.5115 24.2395H58.2735V28.6949ZM67.7848 28.0539H64.536L64.0424 29.2191H63.2759L65.6267 23.7154H66.6424L69.0402 29.2191H68.2832L67.7848 28.0539ZM67.5733 27.5861L66.1486 24.2234L64.7429 27.5861H67.5733ZM71.9363 24.292V29.2191H71.2123V24.292H69.12V23.7154H74.0096V24.292H71.9363ZM78.5984 28.0539H75.3497L74.856 29.2191H74.0896L76.4405 23.7154H77.456L79.8538 29.2191H79.0969L78.5984 28.0539ZM78.3869 27.5861L76.9624 24.2234L75.5565 27.5861H78.3869Z" fill="#E8E8DE"/>
</g>
<defs>
<clipPath id="clip0_16_332">
<rect width="80" height="29.249" fill="white"/>
</clipPath>
</defs>
</svg>

<svg width="80" height="30" fill="none" xmlns="http://www.w3.org/2000/svg"><g clip-path="url(#a)"><path d="M57.195 8.431c.67-.687 2.804-2.863 4.748-4.84L65.48 0l3.379.012c1.864.009 3.396.025 3.412.042.013.017-.046.12-.133.229-.087.112-2.047 2.102-4.361 4.424-2.31 2.326-4.382 4.407-4.994 5.03l.188.221c.1.12.457.529.79.908l2.497 2.83c1.04 1.177 2.593 2.937 3.454 3.91.857.975 1.723 1.957 1.918 2.186.181.212.359.427.533.645.13.17.162.237.12.258-.028.016-.72.033-1.53.029-.812 0-2.293-.017-5.098-.071l-.125-.141-3.038-3.409a2867.586 2867.586 0 0 0-4.286-4.802c-.758-.849-1.569-1.76-1.802-2.03-.233-.267-.425-.513-.425-.542 0-.025.546-.612 1.216-1.298Z" fill="#118260"/><path d="M.283 1.315A32.05 32.05 0 0 1 .029.179L0 0l2.71.012c1.726.009 2.72.03 2.75.055.025.025.07.154.1.29.033.138.25 1.158.482 2.269.283 1.346.567 2.691.853 4.036.238 1.111.47 2.227.52 2.476.05.25.217 1.049.375 1.769s.354 1.656.437 2.08c.083.425.162.808.175.854.017.066.029.07.054.02.017-.033.358-1.394.762-3.016l.804-3.264.431-1.751c.219-.886.513-2.088.735-2.991l.164-.67c.217-.883.429-1.728.558-2.165l2.722.013c1.498.004 2.734.016 2.746.029.012.012.083.229.15.478.07.254.736 2.988 1.481 6.076l.602 2.5.002.005a2597.56 2597.56 0 0 0 1.14 4.715c.012.033.029.054.041.042a25.5 25.5 0 0 0 .246-1.04c.125-.563.296-1.357.379-1.77.079-.411.316-1.527.52-2.475l1.063-4.985.002-.01c.383-1.797.712-3.324.729-3.39.024-.096.066-.134.17-.159.075-.016 1.203-.029 2.51-.029 1.302 0 2.471.017 2.808.063l-.025.145c-.01.07-.145.641-.305 1.323l-.065.28-.514 2.142c-.13.541-.264 1.094-.38 1.582a913.75 913.75 0 0 0-.75 3.142c-.433 1.832-.87 3.663-1.31 5.493l-.134.556c-.555 2.319-1.046 4.37-1.12 4.687-.078.345-.19.778-.349 1.31l-6.055-.003-1.26-5.065c-.407-1.628-.845-3.391-1.193-4.795l-.002-.006-.004-.02-.558-2.24a81.236 81.236 0 0 0-.54-2.123c-.021-.066-.05-.116-.059-.104-.012.013-.487 1.923-1.06 4.245a3211.59 3211.59 0 0 0-2.252 9.176c-.067.274-.15.599-.25.936H4.877l-.041-.196c-.021-.112-.275-1.181-.562-2.384a993.561 993.561 0 0 1-.795-3.35c-.315-1.34-.633-2.678-.953-4.016-.375-1.569-.74-3.113-.811-3.433-.071-.32-.233-1.003-.358-1.519-.103-.41-.274-1.135-.426-1.776L.82 3.582l-.234-.987v-.001l-.303-1.28Zm31.394 19.413V.004h5.784v20.662l-.882.033c-.487.017-1.79.029-4.902.029ZM40.748 4.24c0 2.327.016 6.992.033 10.362l.029 6.13c4.432-.017 5.73-.042 5.75-.058.022-.021.038-1.74.047-3.82l.008-3.783 7.72 7.657c4.839 0 6.341-.013 6.462-.03.12-.016.22-.05.22-.074 0-.021-.183-.237-.403-.479-.22-.241-.778-.828-1.24-1.306-.363-.383-1.2-1.25-2.04-2.12l-.648-.673a1887.376 1887.376 0 0 1-3.746-3.89 437.87 437.87 0 0 1-2.101-2.198l-.208-.22 1.304-1.314.011-.01c.974-.981 2.291-2.308 3.683-3.707C57.848 2.472 59.774.52 59.912.367c.137-.155.233-.296.216-.313-.02-.017-1.56-.033-3.42-.037L53.315.004l-6.554 6.588c-.038-1.057-.05-2.539-.054-3.974L46.699.004h-5.95V4.24ZM74.072 18.64c-.017-1.149-.033-5.813-.033-10.362V.008h5.825v20.724h-5.763l-.03-2.093Zm-16.524 10.58v-5.504h2.972c.918 0 1.54.174 1.866.52.326.347.49 1.011.49 1.992 0 1.194-.146 1.99-.438 2.391-.288.4-.867.601-1.735.601H57.55Zm.724-.524h2.093c.768 0 1.263-.132 1.485-.395.223-.264.334-.851.334-1.762 0-1-.097-1.633-.291-1.9-.192-.265-.652-.399-1.383-.399h-2.238v4.456Zm9.512-.641h-3.249l-.494 1.165h-.766l2.35-5.504h1.016l2.398 5.504h-.757l-.498-1.165Zm-.212-.468-1.424-3.363-1.406 3.363h2.83Zm4.363-3.294v4.927h-.724v-4.927H69.12v-.577h4.89v.577h-2.074Zm6.662 3.762H75.35l-.494 1.165h-.766l2.35-5.504h1.016l2.398 5.504h-.757l-.499-1.165Zm-.211-.468-1.425-3.363-1.406 3.363h2.83Z" fill="#E8E8DE"/></g><defs><clipPath id="a"><path fill="#fff" d="M0 0h80v29.249H0z"/></clipPath></defs></svg>
